src/assets/img/bio/small-circle--green.svg

<svg fill="none" height="36" viewBox="0 0 80 36" width="80" xmlns="http://www.w3.org/2000/svg"><path clip-rule="evenodd" d="m30.6814 4.36476c-6.1935.02448-11.804 1.64016-17.0105 3.94422-5.73386 2.53812-8.72479 6.52442-9.31571 11.52612-.35715 3.0179 1.05196 5.4865 3.95329 7.5428 1.85582 1.3141 4.04552 2.1826 6.40392 2.7917 2.9442.7608 5.9728 1.3542 9.1027 1.3846 7.2429.0715 21.6064.2994 32.0592-1.3846 10.4529-1.684 12.8045-1.3834 16.0092-3.3001 4.9075-2.935 4.9545-4.6064 4.9545-8.979 0-1.719-1.1013-3.0539-3.221-4.9214-2.1198-1.8676-8.3226-5.23673-8.8902-5.4218-8.6208-2.8152-19.4569-4.04913-30.3921-3.18352-.3416 0-1.9974-.00489-3.6533.00098zm34.9938 0c3.491 1.17211 7.7859 4.25991 10.2339 6.41414 2.1572 1.8997 6.7609 9.0562 2.0319 15.459-4.7289 6.4028-7.6089 5.3163-20.6469 7.5118-8.1717 1.376-29.514 1.9397-38.0271.7284-2.8714-.4083-5.6507-1.0076-8.3247-1.8801-2.90655-.9478-5.3845-2.3442-7.38842-4.1978-2.30651-2.1337-3.5857446-4.567-3.55327672-7.3411.07792282-6.8015 3.82341672-12.18023 11.61439672-15.60057 5.7559-2.52829 12.0118-4.25854 18.8625-4.24679 1.452.00196 2.9052 0 3.2923 0 11.552-.957656 22.517.00196 31.9054 3.15302z" fill="#4ade80" fill-rule="evenodd"/></svg>

<svg width="80" height="36" viewBox="0 0 80 36" fill="none" xmlns="http://www.w3.org/2000/svg">
<path fill-rule="evenodd" clip-rule="evenodd" d="M30.6814 4.36476C24.4879 4.38924 18.8774 6.00492 13.6709 8.30898C7.93704 10.8471 4.94611 14.8334 4.35519 19.8351C3.99804 22.853 5.40715 25.3216 8.30848 27.3779C10.1643 28.692 12.354 29.5605 14.7124 30.1696C17.6566 30.9304 20.6852 31.5238 23.8151 31.5542C31.058 31.6257 45.4215 31.8536 55.8743 30.1696C66.3272 28.4856 68.6788 28.7862 71.8835 26.8695C76.791 23.9345 76.838 22.2631 76.838 17.8905C76.838 16.1715 75.7367 14.8366 73.617 12.9691C71.4972 11.1015 65.2944 7.73237 64.7268 7.5473C56.106 4.7321 45.2699 3.49817 34.3347 4.36378C33.9931 4.36378 32.3373 4.35889 30.6814 4.36476ZM65.6752 4.36476C69.1662 5.53687 73.4611 8.62467 75.9091 10.7789C78.0663 12.6786 82.67 19.8351 77.941 26.2379C73.2121 32.6407 70.3321 31.5542 57.2941 33.7497C49.1224 35.1257 27.7801 35.6894 19.267 34.4781C16.3956 34.0698 13.6163 33.4705 10.9423 32.598C8.03575 31.6502 5.5578 30.2538 3.55388 28.4002C1.24737 26.2665 -0.0318646 23.8332 0.000603285 21.0591C0.0785261 14.2576 3.82402 8.87887 11.615 5.45853C17.3709 2.93024 23.6268 1.19999 30.4775 1.21174C31.9295 1.2137 33.3827 1.21174 33.7698 1.21174C45.3218 0.254084 56.2868 1.2137 65.6752 4.36476Z" fill="#4ADE80"/>
</svg>
